svg/fluentui-system-icons/ic_fluent_text_indent_increase_rtl_rotate_270_24_regular.svg

<svg width="24" height="24" viewBox="0 0 24 24" fill="none" xmlns="http://www.w3.org/2000/svg">
<path d="M16 17.75C16 18.1642 16.3358 18.5 16.75 18.5C17.1642 18.5 17.5 18.1642 17.5 17.75V8.75C17.5 8.33579 17.1642 8 16.75 8C16.3358 8 16 8.33579 16 8.75L16 17.75ZM9.21967 2.71967C8.9534 2.98594 8.9292 3.4026 9.14705 3.69621L9.21967 3.78033L11.2197 5.78033C11.4859 6.0466 11.9026 6.0708 12.1962 5.85295L12.2803 5.78033L14.2803 3.78033C14.5732 3.48744 14.5732 3.01256 14.2803 2.71967C14.0141 2.4534 13.5974 2.4292 13.3038 2.64705L13.2197 2.71967L11.75 4.18934L10.2803 2.71967C9.98744 2.42678 9.51256 2.42678 9.21967 2.71967ZM11 20.75C11 21.1642 11.3358 21.5 11.75 21.5C12.1642 21.5 12.5 21.1642 12.5 20.75V8.75C12.5 8.33579 12.1642 8 11.75 8C11.3358 8 11 8.33579 11 8.75V20.75ZM6 17.75C6 18.1642 6.33579 18.5 6.75 18.5C7.16421 18.5 7.5 18.1642 7.5 17.75L7.5 8.75C7.5 8.33579 7.16421 8 6.75 8C6.33579 8 6 8.33579 6 8.75L6 17.75Z" fill="#212121"/>
</svg>

<svg xmlns="http://www.w3.org/2000/svg" width="24" height="24"><path d="M16 17.75a.75.75 0 0 0 1.5 0v-9a.75.75 0 0 0-1.5 0v9ZM9.22 2.72a.75.75 0 0 0-.073.976l.073.084 2 2a.75.75 0 0 0 .976.073l.084-.073 2-2a.75.75 0 0 0-.976-1.133l-.084.073-1.47 1.47-1.47-1.47a.75.75 0 0 0-1.06 0ZM11 20.75a.75.75 0 0 0 1.5 0v-12a.75.75 0 0 0-1.5 0v12Zm-5-3a.75.75 0 0 0 1.5 0v-9a.75.75 0 0 0-1.5 0v9Z"/></svg>
